x-pack/solutions/observability/plugins/apm/public/components/shared/span_icon/icons/websocket.svg

<svg width="16" height="16" viewBox="0 0 16 16" fill="none" xmlns="http://www.w3.org/2000/svg">
<path d="M12.0275 11.0403H14.0138V6.27121L11.776 4.03341L10.3714 5.43793L12.0275 7.09401V11.0403ZM14.019 12.036H11.1261H7.09073L5.43465 10.38L6.13691 9.67769L7.50475 11.0455H10.319L7.54668 8.26793L8.25418 7.56043L11.0265 10.3328V7.51851L9.66394 6.15591L10.361 5.45889L6.91779 2H3.52178H0L1.981 3.981V3.98624H1.99148H6.08975L7.54143 5.43793L5.41893 7.56043L3.96725 6.10875V4.98198H1.981V6.93154L5.41893 10.3695L4.01965 11.7688L6.25745 14.0066H9.65346H16L14.019 12.036Z" fill="#231F20"/>
</svg>

<svg xmlns="http://www.w3.org/2000/svg" width="16" height="16" fill="none"><path fill="#231F20" d="M12.028 11.04h1.986V6.271l-2.238-2.238-1.405 1.405 1.656 1.656zm1.991.996H7.091L5.435 10.38l.702-.702 1.368 1.367h2.814L7.547 8.269l.707-.708 2.773 2.773V7.519L9.664 6.156l.697-.697L6.918 2H0l1.981 1.981v.005H6.09L7.54 5.438 5.42 7.56 3.967 6.11V4.982H1.981v1.95l3.438 3.438-1.4 1.399 2.238 2.238H16z"/></svg>
